images/business-set1-04.svg

<?xml version="1.0" encoding="UTF-8" standalone="no"?>
<svg width="80px" height="80px" viewBox="0 0 80 80" version="1.1" xmlns="http://www.w3.org/2000/svg" xmlns:xlink="http://www.w3.org/1999/xlink" xmlns:sketch="http://www.bohemiancoding.com/sketch/ns">
    <!-- Generator: Sketch 3.3.3 (12081) - http://www.bohemiancoding.com/sketch -->
    <title>business-set1-04</title>
    <desc>Created with Sketch.</desc>
    <defs></defs>
    <g id="Page-1" stroke="none" stroke-width="1" fill="none" fill-rule="evenodd" sketch:type="MSPage">
        <g id="business-set1-04" sketch:type="MSArtboardGroup" fill="#CD2122">
            <path d="M71.7124024,32.5551758 L71.7124024,51.1542969 C71.7124024,54.6337891 69.5805665,57.487793 66.9018555,57.6904297 L64.7153321,61.737793 C64.6518555,61.8569336 64.541504,61.9448242 64.4116212,61.9814453 C64.3666993,61.9936523 64.3208009,62 64.275879,62 C64.1879884,62 64.1010743,61.9770508 64.0239259,61.9321289 L56.557129,57.5859375 L42.4458009,57.5859375 C42.1694337,57.5859375 41.9458009,57.3623047 41.9458009,57.0859375 C41.9458009,56.8095703 42.1694337,56.5859375 42.4458009,56.5859375 L56.6928712,56.5859375 C56.7807618,56.5859375 56.8676759,56.609375 56.9448243,56.6538086 L64.0815431,60.8081055 L66.1528322,56.9726563 C66.1684572,56.9428711 66.1870119,56.9140625 66.2075197,56.8881836 C66.2075197,56.8876953 66.2084963,56.8876953 66.2084963,56.887207 C66.2280275,56.8627929 66.2495119,56.8408203 66.2729494,56.821289 C66.2729494,56.8208007 66.2729494,56.8208007 66.273926,56.8208007 L66.273926,56.8203124 C66.3598635,56.7470702 66.4711916,56.7026366 66.5932619,56.7016601 L66.595215,56.7016601 L66.5971681,56.7016601 C68.8666993,56.7016601 70.7124025,54.2128906 70.7124025,51.1542968 L70.7124025,32.5551758 C70.7124025,29.496582 68.8666994,27.0078125 66.5971681,27.0078125 L55.0278321,27.0078125 C54.7514649,27.0078125 54.5278321,26.7841797 54.5278321,26.5078125 C54.5278321,26.2314453 54.7514649,26.0078125 55.0278321,26.0078125 L66.597168,26.0078125 C69.4174806,26.0078125 71.7124024,28.9448242 71.7124024,32.5551758 L71.7124024,32.5551758 Z M43.4926759,26.5996094 L17.8979493,26.5996094 C17.6215821,26.5996094 17.3979493,26.8232422 17.3979493,27.0996094 C17.3979493,27.3759766 17.6215821,27.5996094 17.8979493,27.5996094 L43.4926759,27.5996094 C43.7690431,27.5996094 43.9926759,27.3759766 43.9926759,27.0996094 C43.9926759,26.8232422 43.7690431,26.5996094 43.4926759,26.5996094 L43.4926759,26.5996094 Z M43.4926759,34.9599609 L17.8979493,34.9599609 C17.6215821,34.9599609 17.3979493,35.1835937 17.3979493,35.4599609 C17.3979493,35.7363281 17.6215821,35.9599609 17.8979493,35.9599609 L43.4926759,35.9599609 C43.7690431,35.9599609 43.9926759,35.7363281 43.9926759,35.4599609 C43.9926759,35.1835937 43.7690431,34.9599609 43.4926759,34.9599609 L43.4926759,34.9599609 Z M43.4926759,44.027832 L17.8979493,44.027832 C17.6215821,44.027832 17.3979493,44.2514648 17.3979493,44.527832 C17.3979493,44.8041992 17.6215821,45.027832 17.8979493,45.027832 L43.4926759,45.027832 C43.7690431,45.027832 43.9926759,44.8041992 43.9926759,44.527832 C43.9926759,44.2514648 43.7690431,44.027832 43.4926759,44.027832 L43.4926759,44.027832 Z M47.1411134,55.0913086 L26.1997071,55.0913086 L18.3344727,60.2568359 C18.2504883,60.3120117 18.1547852,60.3388671 18.0600586,60.3388671 C17.9067383,60.3388671 17.7563477,60.2685546 17.6586914,60.1367187 L14.0170898,55.2221679 C10.8344726,55.0488281 8.2875976,51.6694335 8.2875976,47.540039 L8.2875976,25.6879883 C8.2875977,21.4487305 10.9731446,18 14.2739259,18 L47.0708009,18 C50.3715821,18 53.057129,21.4487305 53.057129,25.6879883 L53.057129,48.0200195 C53.057129,52.0786133 50.5874024,55.0346679 47.1694337,55.090332 C47.1606446,55.0908203 47.150879,55.0913086 47.1411134,55.0913086 L47.1411134,55.0913086 Z M47.0708009,54.0913086 C49.9604493,54.0913086 52.057129,51.5380859 52.057129,48.0200195 L52.057129,25.6879883 C52.057129,22 49.8198243,19 47.0708009,19 L14.2739259,19 C11.5249025,19 9.2875978,22 9.2875978,25.6879883 L9.2875978,47.5400391 C9.2875978,51.2285157 11.5249025,54.2290039 14.2739259,54.2290039 L14.275879,54.2290039 L14.2778321,54.2290039 L14.2797852,54.2290039 C14.400879,54.2304687 14.5122071,54.2749023 14.5981446,54.3481445 L14.5981446,54.3486328 C14.5991212,54.3486328 14.5991212,54.3491211 14.5991212,54.3491211 C14.6166993,54.3642578 14.6342774,54.3808594 14.6499024,54.3989258 L14.6499024,54.3999024 C14.6606446,54.4111329 14.6704102,54.4233399 14.6791993,54.4360352 L18.1801759,59.1616211 L25.775879,54.1733399 C25.8569337,54.119629 25.9526368,54.0913087 26.0502931,54.0913087 L47.0708009,54.0913087 L47.0708009,54.0913086 Z" id="Shape" sketch:type="MSShapeGroup"></path>
        </g>
    </g>
</svg>

<svg width="80" height="80" xmlns="http://www.w3.org/2000/svg"><g id="Page-1" stroke="none" stroke-width="1" fill="none" fill-rule="evenodd"><g id="business-set1-04" fill="#CD2122"><path d="M71.712 32.555v18.6c0 3.479-2.131 6.333-4.81 6.535l-2.187 4.048a.497.497 0 01-.691.194l-7.467-4.346H42.446a.5.5 0 110-1h14.247c.088 0 .175.023.252.068l7.137 4.154 2.07-3.835a.458.458 0 01.12-.151l.002-.001a.496.496 0 01.32-.12h.003c2.27 0 4.115-2.488 4.115-5.547V32.555c0-3.058-1.845-5.547-4.115-5.547h-11.57a.5.5 0 110-1h11.57c2.82 0 5.115 2.937 5.115 6.547zM43.492 26.6H17.899a.5.5 0 100 1h25.595a.5.5 0 100-1zm0 8.36H17.899a.5.5 0 100 1h25.595a.5.5 0 100-1zm0 9.068H17.899a.5.5 0 100 1h25.595a.5.5 0 100-1zm3.65 11.063H26.2l-7.866 5.166a.5.5 0 01-.675-.12l-3.642-4.915c-3.183-.173-5.73-3.553-5.73-7.682V25.688c0-4.24 2.686-7.688 5.987-7.688H47.07c3.3 0 5.986 3.449 5.986 7.688V48.02c0 4.059-2.47 7.015-5.888 7.07a.513.513 0 01-.028.001zm-.071-1c2.89 0 4.986-2.553 4.986-6.071V25.688C52.057 22 49.82 19 47.071 19H14.274c-2.75 0-4.986 3-4.986 6.688V47.54c0 3.689 2.237 6.689 4.986 6.689h.006a.499.499 0 01.318.12h.001a.488.488 0 01.05.05.256.256 0 01.03.037l3.501 4.726 7.596-4.989a.497.497 0 01.274-.082h21.02z" id="Shape"/></g></g></svg>
